X:0149
T:The Merry Dancers.
M:6/8
L:1/8
Q:3/8=120
I: :: :: ::
Z:Jack Campin * www.campin.me.uk * 2009
K:D Mixolydian
c| BAB     cBE| GAG     G2c| BAB     cGE|DED D2
c| BAB     cGE| GAG     G2c|(B/c/d)B c2B|AFD D2:|
c|(B/c/d)B GAG|(B/c/d)B G2c|(B/c/d)B GAB|AFD D2
c|(B/c/d)B GAG| B/c/dB  c2e| dcB     c2B|AFD D2:|
g| fef     gdB| gdB     G2g| fef     gdB|AFD D2
g| fef     gdB| def     gdB| c2a     B2g|AFD D2:|
<end>
<start>
